svg/remove-key.svg

<?xml version="1.0" encoding="UTF-8"?>
<svg xmlns="http://www.w3.org/2000/svg" xmlns:xlink="http://www.w3.org/1999/xlink" width="32" height="32" viewBox="0 0 32 32">
<path fill-rule="nonzero" fill="rgb(0%, 0%, 0%)" fill-opacity="1" d="M 21.761719 0 C 16.113281 0 11.519531 4.59375 11.519531 10.238281 C 11.519531 15.886719 16.113281 20.480469 21.761719 20.480469 C 20.148438 21.6875 19.199219 23.585938 19.199219 25.601562 C 19.199219 29.121094 22.078125 32 25.601562 32 C 29.121094 32 32 29.121094 32 25.601562 C 32 22.398438 29.617188 19.738281 26.539062 19.28125 C 29.78125 17.558594 32 14.160156 32 10.238281 C 32 4.59375 27.40625 0 21.761719 0 M 21.761719 3.839844 C 23.398438 3.839844 25.03125 4.46875 26.28125 5.71875 C 28.78125 8.214844 28.78125 12.265625 26.28125 14.761719 L 17.238281 5.71875 C 18.4375 4.515625 20.0625 3.839844 21.761719 3.839844 M 11.179688 14.800781 L 0 25.980469 L 0 29.820312 L 10.800781 19.019531 C 10.917969 18.898438 11.082031 18.832031 11.25 18.832031 C 11.417969 18.832031 11.582031 18.898438 11.699219 19.019531 C 11.820312 19.140625 11.890625 19.300781 11.890625 19.472656 C 11.890625 19.640625 11.820312 19.804688 11.699219 19.921875 L 0.640625 30.980469 L 1.660156 32 L 6.019531 32 L 8.320312 29.699219 L 8.320312 28.160156 L 9.859375 28.160156 L 12.160156 25.859375 L 12.160156 24.960938 L 13.058594 24.960938 L 14.71875 23.300781 L 14.71875 22.398438 L 15.621094 22.398438 L 17.199219 20.820312 C 14.5 19.652344 12.347656 17.5 11.179688 14.800781 M 25.601562 20.480469 C 28.414062 20.480469 30.71875 22.785156 30.71875 25.601562 C 30.71875 28.414062 28.414062 30.71875 25.601562 30.71875 C 22.785156 30.71875 20.480469 28.414062 20.480469 25.601562 C 20.480469 22.785156 22.785156 20.480469 25.601562 20.480469 M 22.460938 24.960938 C 22.074219 24.960938 21.820312 25.214844 21.820312 25.601562 C 21.820312 25.984375 22.074219 26.238281 22.460938 26.238281 L 28.738281 26.238281 C 29.125 26.238281 29.378906 25.984375 29.378906 25.601562 C 29.378906 25.214844 29.125 24.960938 28.738281 24.960938 Z M 22.460938 24.960938 "/>
</svg>

<svg role="img" viewBox="0 0 32 32" xmlns="http://www.w3.org/2000/svg"><path d="M21.762 0C16.113 0 11.52 4.594 11.52 10.238c0 5.649 4.593 10.242 10.242 10.242a6.4 6.4 0 0 0-2.563 5.122c0 3.52 2.88 6.398 6.403 6.398C29.122 32 32 29.121 32 25.602c0-3.204-2.383-5.864-5.46-6.32C29.78 17.558 32 14.16 32 10.237 32 4.594 27.406 0 21.762 0m0 3.84c1.636 0 3.27.629 4.52 1.879a6.39 6.39 0 0 1 0 9.043l-9.044-9.043a6.38 6.38 0 0 1 4.524-1.88M11.18 14.802 0 25.98v3.84l10.8-10.8a.63.63 0 0 1 .45-.188c.168 0 .332.066.45.188a.63.63 0 0 1 0 .902L.64 30.98 1.66 32h4.36l2.3-2.3v-1.54h1.54l2.3-2.3v-.9h.899l1.66-1.66v-.902h.902L17.2 20.82a11.56 11.56 0 0 1-6.02-6.02m14.423 5.68c2.812 0 5.117 2.305 5.117 5.122 0 2.812-2.305 5.117-5.117 5.117-2.817 0-5.122-2.305-5.122-5.117 0-2.817 2.305-5.122 5.122-5.122m-3.141 4.48c-.387 0-.64.255-.64.642 0 .382.253.636.64.636h6.277c.387 0 .64-.254.64-.636 0-.387-.253-.641-.64-.641Zm0 0" fill="rgb(0%, 0%, 0%)"/></svg>
